Numix-GalliumOS/24/status/audio-volume-muted-blocking-panel.svg

<?xml version="1.0" encoding="UTF-8" standalone="no"?>
<svg
   xmlns:dc="http://purl.org/dc/elements/1.1/"
   xmlns:cc="http://creativecommons.org/ns#"
   xmlns:rdf="http://www.w3.org/1999/02/22-rdf-syntax-ns#"
   xmlns:svg="http://www.w3.org/2000/svg"
   xmlns="http://www.w3.org/2000/svg"
   xmlns:sodipodi="http://sodipodi.sourceforge.net/DTD/sodipodi-0.dtd"
   xmlns:inkscape="http://www.inkscape.org/namespaces/inkscape"
   width="24"
   height="24"
   viewBox="0 0 24 24"
   id="svg3192"
   version="1.1"
   inkscape:version="0.91 r"
   sodipodi:docname="audio-volume-muted-blocking.svg">
  <metadata
     id="metadata3237">
    <rdf:RDF>
      <cc:Work
         rdf:about="">
        <dc:format>image/svg+xml</dc:format>
        <dc:type
           rdf:resource="http://purl.org/dc/dcmitype/StillImage" />
      </cc:Work>
    </rdf:RDF>
  </metadata>
  <sodipodi:namedview
     pagecolor="#ffffff"
     bordercolor="#666666"
     borderopacity="1"
     objecttolerance="10"
     gridtolerance="10"
     guidetolerance="10"
     inkscape:pageopacity="0"
     inkscape:pageshadow="2"
     inkscape:window-width="1280"
     inkscape:window-height="998"
     id="namedview3235"
     showgrid="false"
     inkscape:zoom="19.666667"
     inkscape:cx="10.612514"
     inkscape:cy="10.991624"
     inkscape:window-x="0"
     inkscape:window-y="0"
     inkscape:window-maximized="1"
     inkscape:current-layer="svg3192" />
  <defs
     id="defs3194" />
  <path
     d="m 9,6 -3.0026695,3 0,6 L 9,18 9,14 11,12 9,10 z"
     id="path40"
     inkscape:connector-curvature="0"
     style="fill:#54cdee;fill-opacity:1"
     sodipodi:nodetypes="cccccccc" />
  <path
     d="M 3,9 C 2.4769561,9 2.0008898,9.4981434 2.0008898,10 l 0,4 c 0,0.579702 0.432648,1 0.9991102,1 l 3.9964407,0 0,-6 z"
     id="path42"
     inkscape:connector-curvature="0"
     style="fill:#54cdee;fill-opacity:1"
     sodipodi:nodetypes="ssssccs" />
  <path
     style="color:#000000;fill:#54cdee;fill-opacity:1"
     inkscape:connector-curvature="0"
     d="M 13.492308,7 12,8.4923084 15.507693,12 12,15.507692 13.492308,17 17,13.492308 20.507693,17 22,15.507692 18.492308,12 22,8.4923084 20.507693,7 17,10.507691 z"
     id="path3085" />
</svg>

<svg xmlns="http://www.w3.org/2000/svg" viewBox="0 0 24 24">
 <path d="m 9 6 -3 3 0 6 l 3 3 0 -4 2 -2 -2 -2 z" style="fill:#54cdee;fill-opacity:1"/>
 <path d="m 3 9 c -0.523 0 -0.999 0.498 -0.999 1 l 0 4 c 0 0.58 0.433 1 0.999 1 l 3.996 0 0 -6 z" style="fill:#54cdee;fill-opacity:1"/>
 <path d="m 13.492 7 -1.492 1.492 3.508 3.508 -3.508 3.508 1.492 1.492 3.508 -3.508 3.508 3.508 1.492 -1.492 -3.508 -3.508 3.508 -3.508 -1.492 -1.492 -3.508 3.508 z" style="fill:#54cdee;fill-opacity:1;color:#000"/>
</svg>
